brandFactory_export/1.Light/Emergencia_Cruz_Salud_1Light.svg

<?xml version="1.0" encoding="UTF-8"?>
<svg width="24px" height="24px" viewBox="0 0 24 24" version="1.1" xmlns="http://www.w3.org/2000/svg" xmlns:xlink="http://www.w3.org/1999/xlink">
    <title>1.Light/Emergencia_Cruz_Salud_1Light</title>
    <g id="Symbols" stroke="none" stroke-width="1" fill="none" fill-rule="evenodd">
        <g id="1.Light/Emergencia_Cruz_Salud_1Light" fill="#5CB615" fill-rule="nonzero">
            <path d="M8.38319328,14.7495798 C8.65546218,14.7495798 8.87394958,14.9714286 8.87394958,15.2403361 L8.87731092,21.9294118 C8.87731092,22.3193277 9.15630252,22.6352941 9.33781513,22.6352941 L14.292437,22.6386555 C14.4739496,22.6386555 14.7529412,22.3193277 14.7529412,21.9294118 L14.7495798,15.2369748 C14.7495798,14.9647059 14.9714286,14.7462185 15.2403361,14.7462185 L21.9294118,14.7428571 C22.3159664,14.7428571 22.6352941,14.4403361 22.6352941,14.2823529 L22.6352941,9.32773109 C22.6352941,9.17310924 22.3159664,8.86722689 21.9294118,8.86722689 L15.2369748,8.87058824 C14.9647059,8.87058824 14.7462185,8.6487395 14.7462185,8.37983193 L14.7428571,1.69411765 C14.7428571,1.30756303 14.4369748,0.988235294 14.2823529,0.988235294 L9.33109244,0.988235294 C9.17647059,0.988235294 8.86722689,1.30756303 8.86722689,1.69411765 L8.87058824,8.38655462 C8.87058824,8.65882353 8.6487395,8.87731092 8.37983193,8.87731092 L1.6907563,8.88067227 C1.30084034,8.88067227 0.981512605,9.15966387 0.981512605,9.34117647 L0.981512605,14.2957983 C0.981512605,14.4773109 1.30084034,14.7596639 1.6907563,14.7596639 L8.38319328,14.7495798 Z M14.2957983,23.6235294 L9.34117647,23.6201681 C8.57142857,23.6201681 7.89579832,22.8302521 7.89579832,21.9294118 L7.89243697,15.7344538 L1.69411765,15.7378151 C0.793277311,15.7378151 0.00336134454,15.0621849 0.00336134454,14.292437 L0.00672268908,9.34117647 C0.00672268908,8.57142857 0.796638655,7.89579832 1.70084034,7.89579832 L7.89243697,7.89243697 L7.88907563,1.69411765 C7.88907563,0.810084034 8.57815126,0.00336134454 9.33445378,0.00336134454 L14.2890756,0.00336134454 C15.0453782,0.00336134454 15.7344538,0.810084034 15.7344538,1.69411765 L15.7344538,7.88907563 L21.9361345,7.88571429 C22.8201681,7.88571429 23.6268908,8.57478992 23.6268908,9.33109244 L23.6268908,14.2857143 C23.6268908,15.0420168 22.8201681,15.7310924 21.9361345,15.7310924 L15.7378151,15.7310924 L15.7411765,21.9327731 C15.7411765,22.8336134 15.0655462,23.6235294 14.2957983,23.6235294 Z" id="Emergencia_Cruz_Salud_1Light"></path>
        </g>
    </g>
</svg>

<svg width="24" height="24" viewBox="0 0 24 24" xmlns="http://www.w3.org/2000/svg"><path d="M8.383 14.75c.272 0 .49.221.49.49l.004 6.69c0 .39.28.705.46.705l4.955.004c.182 0 .46-.32.46-.71l-.002-6.692c0-.272.221-.49.49-.49l6.69-.004c.386 0 .705-.303.705-.46V9.327c0-.155-.319-.46-.706-.46l-6.692.003a.491.491 0 01-.49-.491l-.004-6.686c0-.386-.306-.706-.46-.706H9.33c-.155 0-.464.32-.464.706l.004 6.693c0 .272-.222.49-.491.49l-6.69.004c-.39 0-.708.279-.708.46v4.955c0 .181.319.464.709.464l6.692-.01zm5.913 8.874L9.34 23.62c-.77 0-1.445-.79-1.445-1.69l-.004-6.196-6.198.004c-.9 0-1.69-.676-1.69-1.446l.003-4.95c0-.77.79-1.446 1.694-1.446l6.191-.004-.003-6.198c0-.884.69-1.69 1.445-1.69h4.955c.756 0 1.445.806 1.445 1.69V7.89l6.202-.003c.884 0 1.69.689 1.69 1.445v4.955c0 .756-.806 1.445-1.69 1.445h-6.198l.003 6.202c0 .9-.675 1.69-1.445 1.69z" fill="#5CB615" fill-rule="nonzero"/></svg>
